public/avatar/item1/37.svg

<svg xmlns:xlink="http://www.w3.org/1999/xlink" height="65.4" width="80.15" xmlns="http://www.w3.org/2000/svg"><use height="37.05" transform="translate(10.25 21.8)" width="55.55" xlink:href="#a"/><defs><g id="a" fill-rule="evenodd"><path d="M1.8 20.35q.1.5-1.3 1.4-1.9 1.2-2.6 2.05-3.95 4.8-.9 7.6-.55 1.45 1.6 3.15 2.15 1.7 4.25.9 2.5-1 3.25.3.8 1.4-2.5 3.7Q.7 41.5-2 41.2l-2.7-.55-.7 1.3Q-6 43.3-8.05 44.3q-5.75 2.75-11.15-4.8-2.65-3.75-2-8.3.7-4.4 3.8-5.65 2.35-.95 5.05.05 2.75 1.1 3.15.95.8-.25 1.15-.95.75-1.5 1.8-2.9 1.65-2.2 4.8-2.9 3.05-.65 3.25.55" fill="#320000" transform="translate(21.35 -8)"/><path d="m3.2 36.3 2.1-.05q.3.6-2.2 2.4-3.25 2.3-6.55 1.25l-1.5-.15q-.7.25-1.1 1.3-.5 1.45-2.4 2.4-5.05 2.4-9.95-4.5-2.95-4.2-1.6-8.75.75-2.85 2.95-3.8 2.2-.9 5.35.5 1.95.85 2.8.55 1.2-.4 1.8-1.55l1.6-2.6q2.35-3.1 6-2.65l-.65.4Q-2 22.25-2.8 23.2q-3.05 3.65-2.6 6.05.3 1.2 1.5 2.5l-.05.65q.25 1.25 1.45 2.45Q.25 37.5 3.2 36.3" fill="#ff9500" transform="translate(21.35 -8)"/><path d="M23.85 19.85-3.5 32.9-4.95 30q24.5-11.9 27.35-13.65 1.7-1 1.55-1.8l-.2-1.35q3.9-.8 9.7-5.2l.75 2.85q-.15.65-3.4 4.55l-4.05 4.5-1.25.15-1.65-.2" fill="#320000" transform="translate(21.35 -8)"/><path d="m33.05 9.45.2.75.05.4q-.45 1.35-7.2 8.7l-.25-.15-2.1.1q-1.45.5-37.35 17.85l-.9-1.75L22.8 16.9q2.3-1.35 2.05-2.55l-.15-.55-.05-.05.55-.25q6.3-2.9 7.85-4.05" fill="#b3b3b3" transform="translate(21.35 -8)"/><path d="M23 17.15q2.4-1.45 2.15-2.85l-.1-.35.3-.15 1-.4q4.1-1.75 6.5-3.45l.1.3.05.25q-.7 1.7-7 5.35-16.9 9.8-39.5 20.85l-.6-1.2 3.45-1.65q31.2-15.2 33.65-16.7" fill="#fff" transform="translate(21.35 -8)"/><path d="M-6.7 30.35q-.7.85-2.25.4-1.9-.55-3.75.3-2.2 1.05-2.7 3.75-.75 4 2.65 7.95-5.4-1.5-7-8.3-1.1-4.8 2.1-6.95 2.8-1.8 5.1-.5 4.25 2.4 6.1-1.9 1.15-2.65 4.05-3.75 1.45-.55 2.65-.6l-2.55 1.2q-2.65 1.7-3.1 4.35-.55 3.15-1.3 4.05" fill="gold" transform="translate(21.35 -8)"/><path d="M-13.55 26.65q-3.05-.3-4.75 1.5-2.7 2.9-1.55 8.15-.7-1.8-.7-3.95 0-4.3 3.45-5.85l4.3-.15q1.15.4 1.95.95-1.2-.5-2.7-.65" fill="#fff2cd" transform="translate(21.35 -8)"/><path d="m-6.05 24.05 1.55-1.75q2.15-1.75 5-1.65l-1.4.8-2 .55q-2.2.85-3.15 2.05" fill="#ffb" transform="translate(21.35 -8)"/><path d="M-12.1 39.9q.25.7-.45 1.05-.85.35-1.1-.35-.35-.65.45-1.05.75-.35 1.1.35m2 .9q.35.65-.45 1.05-.85.3-1.1-.35-.25-.7.45-1.05.85-.35 1.1.35" fill="#fff" transform="translate(21.35 -8)"/><path d="M1.65 38.2q-1.7.4-2.8-1.05l-1.35-2.3 1.25.95q1.4.9 2.4.8L3.8 36q1.45-.3 1.5.25.15 1.05-3.65 1.95" fill="#ffb" transform="translate(21.35 -8)"/><path d="M2.35 37.1q-2.1-.1-3-.95l.85.3L3 36.2q2.85-.8 1.85.4-.5.55-2.5.5m-16.75-1.95-.05-.35 11.3-4.95-11.25 5.3" fill="#fff2cd" transform="translate(21.35 -8)"/><path d="m-14.65 33.6.05-.05.25 1.9q.65 2.1 2.35 3.15-2.8-.3-3-2.7l.35-2.3" fill="#320000" transform="translate(21.35 -8)"/></g></defs></svg>

<?xml version="1.0" encoding="UTF-8" standalone="no"?>
<svg xmlns:xlink="http://www.w3.org/1999/xlink" height="65.4px" width="80.15px" xmlns="http://www.w3.org/2000/svg">
  <g transform="matrix(1.0, 0.0, 0.0, 1.0, 31.6, 13.8)">
    <use height="37.05" transform="matrix(1.0, 0.0, 0.0, 1.0, -21.35, 8.0)" width="55.55" xlink:href="#shape0"/>
  </g>
  <defs>
    <g id="shape0" transform="matrix(1.0, 0.0, 0.0, 1.0, 21.35, -8.0)">
      <path d="M1.8 20.35 Q1.9 20.85 0.5 21.75 -1.4 22.95 -2.1 23.8 -6.05 28.6 -3.0 31.4 -3.55 32.85 -1.4 34.55 0.75 36.25 2.85 35.45 5.35 34.45 6.1 35.75 6.9 37.15 3.6 39.45 0.7 41.5 -2.0 41.2 L-4.7 40.65 -5.4 41.95 Q-6.0 43.3 -8.05 44.3 -13.8 47.05 -19.2 39.5 -21.85 35.75 -21.2 31.2 -20.5 26.8 -17.4 25.55 -15.05 24.6 -12.35 25.6 -9.6 26.7 -9.2 26.55 -8.4 26.3 -8.05 25.6 -7.3 24.1 -6.25 22.7 -4.6 20.5 -1.45 19.8 1.6 19.15 1.8 20.35" fill="#320000" fill-rule="evenodd" stroke="none"/>
      <path d="M3.2 36.3 L5.3 36.25 Q5.6 36.85 3.1 38.65 -0.15 40.95 -3.45 39.9 L-4.95 39.75 Q-5.65 40.0 -6.05 41.05 -6.55 42.5 -8.45 43.45 -13.5 45.85 -18.4 38.95 -21.35 34.75 -20.0 30.2 -19.25 27.35 -17.05 26.4 -14.85 25.5 -11.7 26.9 -9.75 27.75 -8.9 27.45 -7.7 27.05 -7.1 25.9 L-5.5 23.3 Q-3.15 20.2 0.5 20.65 L-0.15 21.05 Q-2.0 22.25 -2.8 23.2 -5.85 26.85 -5.4 29.25 -5.1 30.45 -3.9 31.75 L-3.95 32.4 Q-3.7 33.65 -2.5 34.85 0.25 37.5 3.2 36.3" fill="#ff9500" fill-rule="evenodd" stroke="none"/>
      <path d="M23.85 19.85 L-3.5 32.9 -4.95 30.0 Q19.55 18.1 22.4 16.35 24.1 15.35 23.95 14.55 L23.75 13.2 Q27.65 12.4 33.45 8.0 L34.2 10.85 Q34.05 11.5 30.8 15.4 L26.75 19.9 25.5 20.05 23.85 19.85" fill="#320000" fill-rule="evenodd" stroke="none"/>
      <path d="M33.05 9.45 L33.25 10.2 33.3 10.6 Q32.85 11.95 26.1 19.3 L25.85 19.15 23.75 19.25 Q22.3 19.75 -13.6 37.1 L-14.5 35.35 22.8 16.9 Q25.1 15.55 24.85 14.35 L24.7 13.8 24.65 13.75 25.2 13.5 Q31.5 10.6 33.05 9.45" fill="#b3b3b3" fill-rule="evenodd" stroke="none"/>
      <path d="M23.0 17.15 Q25.4 15.7 25.15 14.3 L25.05 13.95 25.35 13.8 26.35 13.4 Q30.45 11.65 32.85 9.95 L32.95 10.25 33.0 10.5 Q32.3 12.2 26.0 15.85 9.1 25.65 -13.5 36.7 L-14.1 35.5 -10.65 33.85 Q20.55 18.65 23.0 17.15" fill="#ffffff" fill-rule="evenodd" stroke="none"/>
      <path d="M-6.7 30.35 Q-7.4 31.2 -8.95 30.75 -10.85 30.2 -12.7 31.05 -14.9 32.1 -15.4 34.8 -16.15 38.8 -12.75 42.75 -18.15 41.25 -19.75 34.45 -20.85 29.65 -17.65 27.5 -14.85 25.7 -12.55 27.0 -8.3 29.4 -6.45 25.1 -5.3 22.45 -2.4 21.35 -0.95 20.8 0.25 20.75 L-2.3 21.95 Q-4.95 23.65 -5.4 26.3 -5.95 29.45 -6.7 30.35" fill="#ffd700" fill-rule="evenodd" stroke="none"/>
      <path d="M-13.55 26.65 Q-16.6 26.35 -18.3 28.15 -21.0 31.05 -19.85 36.3 -20.55 34.5 -20.55 32.35 -20.55 28.05 -17.1 26.5 L-12.8 26.35 Q-11.65 26.75 -10.85 27.3 -12.05 26.8 -13.55 26.65" fill="#fff2cd" fill-rule="evenodd" stroke="none"/>
      <path d="M-6.05 24.05 L-4.5 22.3 Q-2.35 20.55 0.5 20.65 L-0.9 21.45 -2.9 22.0 Q-5.1 22.85 -6.05 24.05" fill="#ffffbb" fill-rule="evenodd" stroke="none"/>
      <path d="M-12.1 39.9 Q-11.85 40.6 -12.55 40.95 -13.4 41.3 -13.65 40.6 -14.0 39.95 -13.2 39.55 -12.45 39.2 -12.1 39.9" fill="#ffffff" fill-rule="evenodd" stroke="none"/>
      <path d="M-10.1 40.8 Q-9.75 41.45 -10.55 41.85 -11.4 42.15 -11.65 41.5 -11.9 40.8 -11.2 40.45 -10.35 40.1 -10.1 40.8" fill="#ffffff" fill-rule="evenodd" stroke="none"/>
      <path d="M1.65 38.2 Q-0.05 38.6 -1.15 37.15 L-2.5 34.85 -1.25 35.8 Q0.15 36.7 1.15 36.6 L3.8 36.0 Q5.25 35.7 5.3 36.25 5.45 37.3 1.65 38.2" fill="#ffffbb" fill-rule="evenodd" stroke="none"/>
      <path d="M2.35 37.1 Q0.25 37.0 -0.65 36.15 L0.2 36.45 3.0 36.2 Q5.85 35.4 4.85 36.6 4.35 37.15 2.35 37.1" fill="#fff2cd" fill-rule="evenodd" stroke="none"/>
      <path d="M-14.4 35.15 L-14.45 34.8 -3.15 29.85 -14.4 35.15" fill="#fff2cd" fill-rule="evenodd" stroke="none"/>
      <path d="M-14.65 33.6 L-14.6 33.55 -14.35 35.45 Q-13.7 37.55 -12.0 38.6 -14.8 38.3 -15.0 35.9 L-14.65 33.6" fill="#320000" fill-rule="evenodd" stroke="none"/>
    </g>
  </defs>
</svg>
